!! 00000] TT[WS
!!!OTL: Mai bianshi
!!!ARE: Asia, China, Shanxi Lishi
!! Ethnic Group: Han
!! WII, 77
!!!SCT: J0513
!!!YEM: Copyright 1995, estate of Helmut Schaffrath.
**kern
*ICvox
*Ivox
*M2/4
*k[b-e-]
*B-:
{4ccc
8ccc
8fff
=1
8ddd
8ccc
4bb-
=2
4ccc
4ccc
=3
8ddd
8bb-
4ccc}
=4
{8ddd
8ddd
8ddd
8ddd
=5
8gg
8ccc
4bb-
=6
8gg
16ccc
16ccc
8bb-
8gg
=7
8ff
8dd
4ff}
=8
{8gg
8ccc
8bb-
8gg
=9
8gg
16ccc
16ccc
8bb-
8gg
=10
8ff
8dd
4ff}
==
!!!AGN: Xiaodiao. Maimai, Qingge
!!!ONB: ESAC (Essen Associative Code) Database: CHINA
!!!AMT: simple duple
!!!AIN: vox
!!!EED: Helmut Schaffrath
!!!EEV: 1.0
*-
